www/images/vector/logos/economist.svg

<svg width="220" height="69" viewBox="0 0 220 69" xmlns="http://www.w3.org/2000/svg"><title>Page-1</title><path d="M39.88 67.627c1.16-.403 2.72-1.418 3.635-2.363l.738-.76-.708-1.694-.828.794c-1.606 1.54-3.758 2.228-5.497 1.758-2.805-.758-4.33-4.225-4.33-9.837 0-5.627 1.563-8.27 4.903-8.288 2.006-.01 2.898.9 3.537 3.616.246 1.047.334 1.17.752 1.058.26-.07.7-.127.974-.13.49-.002.5-.053.5-2.65v-2.65l-1.612-.375c-2.477-.58-5.337-.674-7.05-.235-4.676 1.2-7.326 5.187-7.335 11.04-.01 4.903 1.866 8.568 5.23 10.224 2.177 1.072 4.886 1.26 7.09.493zm22.558.005c1.678-.468 2.765-1.058 3.952-2.147 2.794-2.562 4.047-6.657 3.32-10.857-.972-5.624-5-9.072-10.6-9.072-6.417 0-10.452 4.372-10.44 11.313.01 5.234 2.306 8.982 6.474 10.56 2.16.82 4.82.892 7.294.202zm-4.77-1.725c-2.335-1.4-3.526-4.923-3.54-10.462-.01-3.595.376-5.32 1.49-6.672 2.193-2.66 5.95-1.53 7.646 2.3.877 1.983 1.23 3.925 1.24 6.816.012 4.255-.948 6.974-2.845 8.05-1.216.687-2.815.674-3.993-.033zM117 67.74c2.357-.506 4.972-2.404 6.2-4.5 1.327-2.264 1.923-5.672 1.476-8.43-.882-5.43-4.566-8.89-9.787-9.193-3.598-.21-6.358.753-8.422 2.935-1.93 2.04-2.904 4.875-2.905 8.448-.003 7.794 5.752 12.394 13.437 10.74zm-4.286-1.754c-2.382-1.21-3.68-4.954-3.69-10.652-.01-4.09.64-6.135 2.356-7.405.903-.67 2.76-.76 3.88-.19 2.63 1.343 4.102 4.91 4.14 10.038.03 4.096-.83 6.803-2.553 8.03-1.028.732-2.885.812-4.133.178zm84.835 1.506c1.603-.592 3.345-2.314 3.855-3.81.42-1.237.49-3.342.138-4.278-.624-1.664-2.14-3.08-6.486-6.056-.946-.648-1.92-1.503-2.166-1.9-.533-.864-.58-2.268-.1-2.955.713-1.016 2.455-1.542 3.86-1.164 1.03.277 1.467.822 2.02 2.52.257.79.49 1.145.742 1.132l1.144-.056.777-.037v-1.985c0-1.4-.09-2.075-.31-2.294-.17-.17-1.27-.49-2.444-.71-6.29-1.184-9.918 1.084-9.91 6.196.003 2.843.992 4.213 5.036 6.98 3.414 2.336 4.557 3.983 3.815 5.497-.55 1.123-1.383 1.54-3.087 1.54-1.35 0-1.603-.07-2.102-.57-.31-.312-.807-1.162-1.102-1.888-.566-1.398-.993-1.65-2.255-1.334-.51.13-.53.208-.53 2.213 0 1.4.092 2.15.28 2.294.152.118.927.394 1.72.612 3.084.847 4.913.86 7.106.052zm21.025-.194c1.208-.478 1.32-.58 1.386-1.272.063-.648.017-.73-.33-.598-.22.085-1.004.205-1.738.267-1.71.144-2.71-.33-3.337-1.583-.41-.824-.45-1.416-.516-8.056l-.073-7.167h4.866l.13-.64c.07-.354.192-.904.273-1.224l.146-.58H214v-5.78h-2.183l-.146.867c-.22 1.31-1.3 3.414-2.09 4.08-.712.598-1.94 1.05-2.858 1.053-.452 0-.5.108-.5 1.112v1.11h2.625l.095 7.168c.103 7.745.21 8.525 1.366 10.043.313.408 1.096 1.012 1.74 1.34 1.087.554 1.325.59 3.194.488 1.384-.075 2.434-.274 3.333-.63zm-198.113.344l.795-.132.39-3.032c.214-1.668.444-3.308.51-3.644.118-.596.095-.61-.907-.61-.98 0-1.028.028-1.028.626 0 1.113-.675 2.668-1.457 3.354-1.035.908-2.007 1.127-5.018 1.13-3.896 0-3.62.505-3.705-6.787l-.07-5.94 2.96.104c4.028.14 4.543.443 4.95 2.902.126.76.2.833.85.833h.712l.048-9.778h-.722c-.71 0-.726.02-.966 1.38-.136.775-.424 1.56-.656 1.794-.746.746-3.163 1.022-5.98.683L10 50.383V39.11l2.722.02c1.497.008 3.12.136 3.606.282 1.106.333 1.8 1.31 2.007 2.825l.155 1.12 1.62-.134v-6.445H.224v.56c0 .51.122.584 1.344.816 2.77.527 2.655-.08 2.655 14.07 0 12.87-.01 12.987-1.26 13.622-.346.175-1.104.388-1.684.473-.927.133-1.056.218-1.056.69v.54l6.945.062c3.82.034 8.194.084 9.722.112 1.527.027 3.134-.01 3.572-.082zm65.535-.364c-.006-.475-.3-.733-1.22-1.075-1.337-.497-1.417-.925-1.43-7.732-.015-6.51.07-7.08 1.286-8.5.93-1.085 1.87-1.525 3.26-1.525 3.105 0 3.805 2.215 3.608 11.408-.122 5.72-.218 6.064-1.8 6.464-.642.163-.81.314-.81.723v.516h11.14l-.07-.495c-.057-.392-.27-.527-1.044-.66-1.35-.228-1.98-.7-2.15-1.603-.078-.42-.162-3.694-.186-7.28-.037-5.414-.107-6.705-.416-7.63-.53-1.59-1.518-2.816-2.875-3.567-1.072-.594-1.37-.653-3.29-.653-2.606 0-3.65.422-5.562 2.246L83.11 49.18v-1.09c-.003-.6-.063-1.45-.136-1.89l-.133-.802-1.41.296c-1.107.232-5.503.75-6.374.75-.092 0-.167.25-.167.556 0 .47.102.556.673.556 1.268 0 2.16.547 2.42 1.482.34 1.227.297 15.055-.05 16.068-.308.894-1.03 1.33-2.21 1.336-.74.003-.834.065-.834.558v.556h5.554c4.3 0 5.555-.063 5.553-.278zm54.852-.205c-.052-.344-.342-.572-1.02-.797-.52-.173-1.07-.53-1.22-.795-.197-.34-.297-2.284-.348-6.736-.068-6.026-.052-6.298.416-7.387.906-2.107 2.59-3.128 4.69-2.847 1.19.16 1.897.87 2.36 2.37.325 1.045.383 2.21.383 7.676 0 4.717-.073 6.573-.274 6.925-.152.265-.7.623-1.222.796-.677.225-.968.453-1.018.797l-.07.483h10.252v-.546c0-.445-.14-.57-.764-.688-1.566-.294-1.562-.274-1.635-7.6l-.066-6.567.587-1.2c.748-1.526 1.892-2.327 3.52-2.462 1.606-.133 2.476.342 3.1 1.69.46.996.48 1.332.48 8.072 0 6.58-.027 7.06-.42 7.495-.23.255-.755.527-1.166.604-.6.113-.747.245-.747.67v.532h11.05l-.102-.53c-.08-.423-.276-.552-.978-.646-1.228-.164-1.91-.682-2.18-1.655-.136-.49-.233-3.46-.234-7.184 0-6.93-.1-7.672-1.287-9.54-.425-.67-1.034-1.22-1.84-1.666-1.09-.602-1.4-.667-3.207-.667-1.747 0-2.164.08-3.282.63-.704.345-1.865 1.195-2.58 1.888l-1.298 1.26-.79-1.256c-.536-.857-1.13-1.46-1.863-1.89-.98-.576-1.268-.633-3.188-.633-2.55 0-3.565.414-5.575 2.275L138 49.16l-.003-1.413c-.002-.777-.06-1.624-.13-1.882-.12-.456-.165-.46-1.542-.172-1.112.233-5.507.75-6.38.752-.092 0-.167.25-.167.555 0 .463.106.556.633.556 1.183 0 2.063.458 2.392 1.245.46 1.105.45 15.323-.014 16.43-.353.847-1.035 1.215-2.247 1.215-.665 0-.762.07-.762.555v.556h11.142l-.07-.483zm42.618.13c-.074-.192-.135-.43-.135-.525 0-.096-.46-.227-1.025-.29-1.566-.178-1.9-.65-2.105-2.984-.094-1.078-.178-5.57-.187-9.983L180 45.4l-1.61.28c-.887.154-2.76.394-4.16.534-1.402.14-2.586.292-2.632.338-.26.26.27 1.006.717 1.006.928 0 1.917.485 2.233 1.096.414.8.662 9.208.398 13.522-.222 3.644-.393 3.99-2.08 4.21-.966.126-1.3.355-1.307.894-.004.216 1.347.278 6.02.278 5.4 0 6.01-.036 5.888-.352zm-4.78-26.213c2.224-1.15 1.96-4.6-.418-5.427-3.262-1.137-5.385 3.53-2.426 5.335.858.523 1.942.558 2.843.092zm-39.244-11.475c1.168-.286 2.63-1.146 3.834-2.257 1.27-1.17 1.455-1.535 1.133-2.243l-.257-.566-1.08 1.008c-2.632 2.463-5.943 2.795-8.038.808-1.272-1.206-2.355-4.254-2.364-6.655l-.003-.943h12.267l-.16-1.606c-.204-2.015-.574-3.083-1.58-4.554-1.51-2.203-3.64-3.097-6.933-2.906-4.133.24-7.186 3.097-8.146 7.627-.418 1.973-.418 3.842 0 5.614.443 1.88 1.053 3.01 2.386 4.42 2.202 2.33 5.377 3.13 8.944 2.255zm-6.887-13.424c.36-2.143.825-3.302 1.658-4.135.77-.77.948-.843 2.06-.843.888 0 1.418.134 1.97.5.855.566 1.868 2.44 2.087 3.857l.14.912-.847.145c-.466.08-2.28.21-4.03.29l-3.184.143.147-.87zm-35.89 12.744c0-.558-.074-.612-.834-.615-1.148-.005-1.874-.42-2.333-1.334-.354-.707-.388-1.76-.388-12.07V3.518l2.5.157c1.374.087 2.866.303 3.315.48.967.382 1.517 1.366 1.517 2.71 0 .893.016.91.778.91H102v-6.19l-11.667-.002-11.666-.002-.002 1.598c0 .88-.066 2.28-.145 3.114l-.143 1.515.867-.072c.864-.07.868-.074.987-1.182.066-.61.238-1.324.383-1.584.416-.75 1.74-1.127 4.554-1.3l2.61-.16V14.99c0 12.867.034 12.58-1.5 13-.458.125-1.083.253-1.388.285-.41.043-.574.207-.622.614l-.065.555h12.464v-.61zm16 .105c0-.386-.16-.538-.674-.64-.37-.075-.87-.386-1.11-.692-.41-.52-.44-.923-.44-6.31 0-4.693.065-5.908.345-6.58.694-1.66 1.98-2.547 3.695-2.547 2.072 0 2.728.915 3.1 4.32.29 2.654.147 9.994-.212 10.888-.173.434-.488.667-1.138.842-.706.19-.9.347-.9.733v.492h10v-.5c0-.328-.133-.5-.388-.5-.213-.002-.747-.102-1.186-.224-1.322-.366-1.38-.666-1.52-7.997-.122-6.29-.148-6.6-.646-7.61-.624-1.266-1.937-2.446-3.116-2.8-.474-.14-1.5-.257-2.28-.257-1.67 0-3.564.8-4.918 2.08l-.834.786V.66l-.5.108c-1.424.312-3.17.547-5.114.69-1.35.1-2.162.252-2.16.406.007.493.347.737 1.22.873 1.078.17 1.596.75 1.777 1.995.075.514.105 5.74.068 11.612-.078 12.165-.008 11.703-1.814 11.973-.9.136-1.418.57-1.164.98.05.082 2.3.148 5 .148h4.91v-.506z" fill="#000" id="Page-1" fill-rule="evenodd"/></svg>

<?xml version="1.0" encoding="UTF-8" standalone="no"?>
<svg width="220px" height="69px" viewBox="0 0 220 69" version="1.1" xmlns="http://www.w3.org/2000/svg" xmlns:xlink="http://www.w3.org/1999/xlink" xmlns:sketch="http://www.bohemiancoding.com/sketch/ns">
    <!-- Generator: Sketch 3.2.2 (9983) - http://www.bohemiancoding.com/sketch -->
    <title>Page-1</title>
    <desc>Created with Sketch.</desc>
    <defs></defs>
    <g id="Page-1" stroke="none" stroke-width="1" fill="none" fill-rule="evenodd" sketch:type="MSPage">
        <g id="economist" sketch:type="MSLayerGroup" fill="#000000">
            <g id="Page-1" sketch:type="MSShapeGroup">
                <path d="M39.879,67.627 C41.039,67.224 42.6,66.209 43.515,65.264 L44.253,64.503 L43.545,62.81 L42.717,63.604 C41.111,65.144 38.959,65.832 37.22,65.362 C34.415,64.604 32.889,61.137 32.889,55.525 C32.889,49.898 34.453,47.255 37.793,47.237 C39.799,47.226 40.691,48.138 41.33,50.853 C41.576,51.9 41.664,52.023 42.082,51.911 C42.343,51.841 42.781,51.783 43.056,51.781 C43.546,51.778 43.555,51.727 43.555,49.129 L43.555,46.48 L41.944,46.105 C39.467,45.526 36.607,45.431 34.894,45.87 C30.218,47.069 27.568,51.057 27.559,56.909 C27.551,61.813 29.426,65.478 32.789,67.134 C34.967,68.206 37.676,68.394 39.879,67.627 L39.879,67.627 L39.879,67.627 Z M62.438,67.632 C64.116,67.164 65.203,66.574 66.39,65.485 C69.184,62.923 70.437,58.828 69.711,54.628 C68.738,49.004 64.711,45.556 59.111,45.556 C52.693,45.556 48.658,49.928 48.67,56.869 C48.679,62.104 50.976,65.852 55.144,67.43 C57.305,68.249 59.963,68.322 62.438,67.632 L62.438,67.632 L62.438,67.632 Z M57.667,65.907 C55.333,64.507 54.142,60.984 54.128,55.445 C54.119,51.85 54.504,50.124 55.617,48.773 C57.811,46.112 61.569,47.242 63.264,51.073 C64.141,53.056 64.494,54.998 64.503,57.889 C64.516,62.145 63.556,64.864 61.659,65.939 C60.444,66.627 58.845,66.614 57.667,65.907 L57.667,65.907 L57.667,65.907 Z M117,67.741 C119.357,67.234 121.972,65.336 123.201,63.24 C124.527,60.976 125.123,57.568 124.676,54.809 C123.794,49.381 120.11,45.92 114.889,45.617 C111.292,45.408 108.532,46.37 106.468,48.552 C104.539,50.592 103.564,53.427 103.563,57 C103.56,64.794 109.315,69.394 117,67.741 L117,67.741 L117,67.741 Z M112.714,65.986 C110.332,64.775 109.035,61.032 109.023,55.334 C109.015,51.243 109.665,49.199 111.38,47.929 C112.283,47.26 114.141,47.17 115.26,47.741 C117.891,49.083 119.362,52.649 119.4,57.778 C119.431,61.874 118.57,64.581 116.847,65.808 C115.819,66.54 113.962,66.62 112.714,65.986 L112.714,65.986 L112.714,65.986 Z M197.549,67.492 C199.153,66.9 200.895,65.178 201.405,63.681 C201.826,62.445 201.894,60.34 201.543,59.404 C200.919,57.74 199.402,56.323 195.057,53.348 C194.111,52.7 193.136,51.845 192.891,51.448 C192.357,50.584 192.31,49.18 192.791,48.493 C193.503,47.477 195.245,46.951 196.649,47.329 C197.68,47.607 198.117,48.152 198.671,49.851 C198.927,50.639 199.161,50.995 199.412,50.982 C199.613,50.972 200.128,50.947 200.556,50.926 L201.333,50.889 L201.333,48.905 C201.333,47.505 201.242,46.83 201.023,46.611 C200.853,46.441 199.753,46.12 198.579,45.899 C192.29,44.716 188.662,46.984 188.669,52.096 C188.673,54.939 189.662,56.309 193.706,59.076 C197.12,61.412 198.263,63.059 197.521,64.573 C196.971,65.696 196.137,66.112 194.433,66.112 C193.084,66.112 192.83,66.043 192.331,65.544 C192.019,65.231 191.523,64.381 191.228,63.655 C190.662,62.257 190.235,62.004 188.973,62.321 C188.464,62.449 188.444,62.528 188.444,64.533 C188.444,65.934 188.535,66.683 188.722,66.827 C188.875,66.945 189.65,67.221 190.444,67.439 C193.527,68.287 195.356,68.3 197.549,67.492 L197.549,67.492 L197.549,67.492 Z M218.575,67.298 C219.783,66.82 219.895,66.717 219.961,66.026 C220.023,65.378 219.977,65.295 219.63,65.428 C219.409,65.513 218.626,65.633 217.892,65.695 C216.181,65.839 215.182,65.365 214.555,64.112 C214.144,63.288 214.106,62.696 214.039,56.056 L213.967,48.889 L218.833,48.889 L218.962,48.249 C219.032,47.896 219.155,47.346 219.236,47.026 L219.382,46.445 L214,46.445 L214,40.667 L211.817,40.667 L211.671,41.533 C211.449,42.843 210.371,44.947 209.58,45.613 C208.868,46.211 207.641,46.664 206.722,46.666 C206.27,46.667 206.222,46.774 206.222,47.778 L206.222,48.889 L208.847,48.889 L208.942,56.056 C209.045,63.801 209.151,64.581 210.308,66.099 C210.621,66.508 211.404,67.112 212.049,67.441 C213.135,67.994 213.373,68.03 215.242,67.928 C216.626,67.853 217.676,67.654 218.575,67.298 L218.575,67.298 L218.575,67.298 Z M20.462,67.642 L21.257,67.51 L21.647,64.478 C21.861,62.81 22.091,61.17 22.157,60.834 C22.275,60.238 22.252,60.223 21.25,60.223 C20.271,60.223 20.222,60.252 20.222,60.85 C20.222,61.963 19.547,63.518 18.765,64.204 C17.73,65.112 16.758,65.331 13.747,65.333 C9.851,65.334 10.127,65.839 10.042,58.547 L9.973,52.608 L12.931,52.711 C16.96,52.851 17.475,53.153 17.882,55.612 C18.008,56.373 18.082,56.445 18.732,56.445 L19.444,56.444 L19.492,46.667 L18.77,46.667 C18.059,46.667 18.044,46.688 17.804,48.047 C17.668,48.822 17.38,49.608 17.148,49.841 C16.402,50.586 13.985,50.862 11.167,50.523 L10,50.383 L10,39.111 L12.722,39.129 C14.219,39.138 15.842,39.266 16.328,39.412 C17.434,39.745 18.127,40.721 18.335,42.237 L18.49,43.358 L20.111,43.223 L20.111,36.778 L0.223,36.778 L0.223,37.339 C0.222,37.848 0.345,37.922 1.567,38.154 C4.337,38.681 4.222,38.074 4.222,52.223 C4.222,65.095 4.212,65.211 2.962,65.846 C2.616,66.021 1.858,66.234 1.278,66.319 C0.351,66.453 0.222,66.538 0.222,67.011 L0.222,67.55 L7.167,67.612 C10.986,67.646 15.361,67.696 16.889,67.724 C18.417,67.751 20.024,67.714 20.462,67.642 L20.462,67.642 L20.462,67.642 Z M85.997,67.278 C85.991,66.803 85.698,66.545 84.778,66.203 C83.44,65.706 83.36,65.278 83.346,58.471 C83.332,51.959 83.418,51.389 84.633,49.97 C85.562,48.885 86.502,48.445 87.893,48.445 C90.998,48.445 91.698,50.66 91.501,59.853 C91.378,65.572 91.282,65.917 89.701,66.317 C89.058,66.48 88.889,66.631 88.889,67.04 L88.889,67.556 L100.031,67.556 L99.96,67.061 C99.903,66.668 99.69,66.533 98.916,66.401 C97.567,66.172 96.936,65.701 96.767,64.797 C96.688,64.378 96.604,61.103 96.58,57.518 C96.543,52.103 96.473,50.812 96.164,49.888 C95.633,48.296 94.646,47.071 93.289,46.32 C92.218,45.726 91.92,45.667 90,45.667 C87.394,45.667 86.351,46.089 84.438,47.913 L83.111,49.179 L83.109,48.09 C83.107,47.491 83.047,46.64 82.974,46.199 L82.841,45.398 L81.43,45.694 C80.323,45.926 75.927,46.444 75.056,46.445 C74.964,46.445 74.889,46.695 74.889,47 C74.889,47.471 74.992,47.556 75.563,47.556 C76.831,47.556 77.724,48.103 77.983,49.038 C78.324,50.265 78.28,64.093 77.932,65.106 C77.625,66 76.902,66.437 75.722,66.442 C74.982,66.445 74.889,66.507 74.889,67 L74.889,67.556 L80.444,67.556 C84.743,67.556 85.999,67.493 85.997,67.278 L85.997,67.278 L85.997,67.278 Z M140.849,67.073 C140.798,66.729 140.508,66.501 139.831,66.276 C139.31,66.103 138.76,65.745 138.609,65.481 C138.413,65.139 138.313,63.196 138.262,58.744 C138.194,52.718 138.21,52.446 138.678,51.357 C139.584,49.25 141.268,48.229 143.369,48.51 C144.557,48.67 145.265,49.38 145.729,50.879 C146.053,51.925 146.111,53.089 146.111,58.556 C146.111,63.273 146.037,65.129 145.836,65.481 C145.684,65.745 145.135,66.103 144.614,66.276 C143.937,66.501 143.646,66.729 143.596,67.073 L143.525,67.556 L153.778,67.556 L153.778,67.01 C153.778,66.565 153.638,66.439 153.014,66.322 C151.448,66.028 151.452,66.048 151.379,58.722 L151.314,52.155 L151.901,50.956 C152.648,49.429 153.792,48.628 155.421,48.493 C157.026,48.36 157.896,48.835 158.52,50.183 C158.98,51.179 159,51.515 159,58.255 C159,64.835 158.973,65.316 158.581,65.75 C158.35,66.005 157.825,66.277 157.414,66.354 C156.813,66.467 156.667,66.599 156.667,67.025 L156.667,67.556 L167.716,67.556 L167.615,67.027 C167.534,66.603 167.339,66.474 166.637,66.38 C165.409,66.216 164.727,65.698 164.457,64.725 C164.321,64.235 164.224,61.266 164.223,57.541 C164.222,50.61 164.122,49.868 162.936,48 C162.511,47.331 161.902,46.78 161.095,46.334 C160.006,45.732 159.695,45.667 157.889,45.667 C156.143,45.667 155.726,45.747 154.608,46.296 C153.904,46.642 152.743,47.492 152.029,48.185 L150.73,49.445 L149.941,48.189 C149.404,47.333 148.81,46.731 148.077,46.3 C147.097,45.724 146.809,45.667 144.889,45.667 C142.34,45.667 141.325,46.081 139.315,47.942 L138,49.159 L137.997,47.747 C137.995,46.97 137.937,46.123 137.868,45.865 C137.746,45.409 137.702,45.404 136.325,45.693 C135.213,45.926 130.818,46.444 129.944,46.445 C129.853,46.445 129.778,46.695 129.778,47 C129.778,47.463 129.884,47.556 130.411,47.556 C131.593,47.556 132.473,48.014 132.802,48.801 C133.263,49.905 133.251,64.123 132.788,65.231 C132.435,66.077 131.753,66.445 130.541,66.445 C129.875,66.445 129.778,66.516 129.778,67 L129.778,67.556 L140.92,67.556 L140.849,67.073 L140.849,67.073 Z M183.468,67.204 C183.394,67.011 183.333,66.774 183.333,66.678 C183.333,66.582 182.872,66.451 182.308,66.387 C180.742,66.21 180.407,65.737 180.203,63.404 C180.109,62.326 180.025,57.834 180.016,53.421 L180,45.398 L178.389,45.678 C177.503,45.832 175.631,46.072 174.23,46.212 C172.828,46.352 171.644,46.504 171.598,46.55 C171.337,46.811 171.868,47.556 172.315,47.556 C173.243,47.556 174.232,48.041 174.548,48.652 C174.962,49.453 175.21,57.86 174.946,62.174 C174.724,65.818 174.553,66.163 172.866,66.384 C171.9,66.51 171.566,66.739 171.559,67.278 C171.556,67.494 172.907,67.556 177.579,67.556 C182.981,67.556 183.589,67.52 183.468,67.204 L183.468,67.204 L183.468,67.204 Z M178.687,40.99 C180.912,39.839 180.647,36.391 178.27,35.563 C175.008,34.426 172.885,39.094 175.844,40.898 C176.702,41.421 177.786,41.456 178.687,40.99 L178.687,40.99 L178.687,40.99 Z M139.444,29.515 C140.612,29.229 142.074,28.369 143.278,27.258 C144.549,26.087 144.733,25.723 144.411,25.015 L144.153,24.449 L143.074,25.458 C140.441,27.921 137.13,28.253 135.035,26.266 C133.763,25.06 132.68,22.012 132.671,19.611 L132.667,18.667 L144.934,18.667 L144.773,17.061 C144.57,15.045 144.2,13.977 143.193,12.506 C141.684,10.303 139.553,9.409 136.261,9.6 C132.127,9.839 129.074,12.697 128.114,17.227 C127.696,19.2 127.696,21.069 128.113,22.841 C128.557,24.721 129.167,25.851 130.5,27.26 C132.702,29.589 135.877,30.39 139.444,29.515 L139.444,29.515 L139.444,29.515 Z M132.557,16.091 C132.917,13.947 133.382,12.788 134.215,11.955 C134.986,11.184 135.163,11.112 136.274,11.112 C137.163,11.112 137.693,11.246 138.245,11.612 C139.1,12.178 140.113,14.051 140.332,15.469 L140.473,16.382 L139.625,16.527 C139.159,16.606 137.345,16.736 135.594,16.816 L132.411,16.96 L132.557,16.091 L132.557,16.091 Z M96.667,28.834 C96.667,28.276 96.593,28.222 95.833,28.219 C94.685,28.215 93.959,27.8 93.5,26.886 C93.146,26.179 93.112,25.126 93.112,14.815 L93.111,3.519 L95.611,3.677 C96.986,3.764 98.478,3.98 98.927,4.157 C99.894,4.539 100.444,5.523 100.444,6.867 C100.444,7.76 100.46,7.778 101.222,7.778 L102,7.778 L102,1.586 L90.333,1.585 L78.667,1.583 L78.665,3.181 C78.664,4.059 78.599,5.46 78.52,6.294 L78.377,7.809 L79.244,7.738 C80.108,7.667 80.112,7.664 80.231,6.556 C80.296,5.945 80.468,5.232 80.613,4.972 C81.029,4.223 82.353,3.845 85.167,3.673 L87.778,3.512 L87.778,14.99 C87.778,27.857 87.811,27.569 86.276,27.989 C85.819,28.115 85.194,28.243 84.889,28.275 C84.481,28.318 84.316,28.482 84.268,28.889 L84.203,29.445 L96.667,29.445 L96.667,28.834 L96.667,28.834 Z M112.667,28.939 C112.667,28.554 112.506,28.402 111.993,28.299 C111.623,28.225 111.123,27.914 110.882,27.608 C110.472,27.087 110.444,26.685 110.444,21.297 C110.444,16.605 110.508,15.39 110.788,14.719 C111.482,13.058 112.768,12.171 114.483,12.171 C116.555,12.171 117.211,13.085 117.583,16.489 C117.872,19.144 117.73,26.484 117.371,27.378 C117.197,27.812 116.882,28.045 116.232,28.22 C115.526,28.41 115.333,28.567 115.333,28.953 L115.333,29.445 L125.333,29.445 L125.333,28.945 C125.333,28.617 125.199,28.444 124.944,28.444 C124.731,28.443 124.197,28.343 123.758,28.221 C122.436,27.854 122.379,27.554 122.238,20.223 C122.116,13.932 122.09,13.624 121.592,12.612 C120.968,11.347 119.655,10.167 118.476,9.814 C118.002,9.672 116.977,9.556 116.196,9.556 C114.526,9.556 112.632,10.357 111.278,11.636 L110.444,12.422 L110.444,0.659 L109.944,0.768 C108.52,1.08 106.774,1.315 104.83,1.458 C103.481,1.557 102.668,1.71 102.67,1.864 C102.677,2.357 103.017,2.601 103.889,2.737 C104.968,2.906 105.486,3.487 105.667,4.732 C105.742,5.246 105.772,10.472 105.735,16.344 C105.657,28.509 105.727,28.047 103.921,28.317 C103.019,28.453 102.502,28.888 102.756,29.298 C102.806,29.379 105.056,29.445 107.757,29.445 L112.667,29.445 L112.667,28.939 L112.667,28.939 Z" id="Imported-Layers"></path>
            </g>
        </g>
    </g>
</svg>
